X: 60
T: Calle's Brudmarsch
M: 4/4
L: 1/8
K: Gm
R: marsch
|: "Gm"D2 G2 G2 G2 | "D"^FGAF "Gm"G2 D2 | "Gm"G2 B2 B2 B2 | "D"AG^FA "Gm"G2 D2 :|
|: "Gm"d2 dc B2 d2 | "Cm"c2 cB A2 c2 | "Gm"B2 BA G2 B2 | "D"ABAG ^F2 D2 |
"Gm"d2 dc B2 d2 | "Cm"c2 cB A2 c2 | "Gm"BA G2 "D"AG ^F2 | "Gm"GABA G4 :|

